build/Karasa-Jaga/scalable/apps/audacious-symbolic.svg

<svg height="16" width="16" xmlns="http://www.w3.org/2000/svg"><g fill="#bebebe" transform="matrix(.69424919 0 0 .69424919 -.33099 -.33099)"><path d="m12 .7109375a11.289739 11.289739 0 0 0 -11.2890625 11.2890625 11.289739 11.289739 0 0 0 11.2890625 11.289062 11.289739 11.289739 0 0 0 11.289062-11.289062 11.289739 11.289739 0 0 0 -11.289062-11.2890625zm0 1.796875a9.4920092 9.4920092 0 0 1 9.492188 9.4921875 9.4920092 9.4920092 0 0 1 -9.492188 9.492188 9.4920092 9.4920092 0 0 1 -9.4921875-9.492188 9.4920092 9.4920092 0 0 1 9.4921875-9.4921875z"/><path d="m12.002356 3.9298455a8 8.0701549 0 1 0 0 16.1403095 8 8.0701549 0 0 0 0-16.1403095zm.374557 4.4038231c1.810688.06487 2.882499 1.223845 3.000687 2.9124634.133154 1.90371-.463536 2.396262-.209732 2.778803.529963.79881-.216548 1.010706-.714776 1.401025-.309904.242766-.90776.128892-1.2045-.216599-.901688-.493255-.55997.4539-2.422209.458028-.9680669-.03751-1.8503069-.698112-2.1010089-1.589096-.384477-1.366337.178388-2.37207 1.7486399-2.84801.454177-.137656 1.354491-.05875 1.750752-.332823.374254-.258843.234507-.632464-.225052-.680966-.659082-.06956-1.686743.21505-2.2948899.100904-.488172-.09161-.637119-.9757994-.318559-1.3550644.521284-.6206841 1.8632799-.594006 2.6187319-.627079v.00054c.127219-.0055.251204-.0065.371916-.0021zm-.245127 4.0810394c-.419411 0-.761793.297019-.761793.665646 0 .368626.342382.665645.761793.665645.419414 0 .753871-.297019.753871-.665645 0-.368627-.334457-.665646-.753871-.665646z"/></g></svg>

<?xml version="1.0" encoding="UTF-8" standalone="no"?>
<!-- Created with Inkscape (http://www.inkscape.org/) -->

<svg
   xmlns:dc="http://purl.org/dc/elements/1.1/"
   xmlns:cc="http://creativecommons.org/ns#"
   xmlns:rdf="http://www.w3.org/1999/02/22-rdf-syntax-ns#"
   xmlns:svg="http://www.w3.org/2000/svg"
   xmlns="http://www.w3.org/2000/svg"
   xmlns:xlink="http://www.w3.org/1999/xlink"
   xmlns:sodipodi="http://sodipodi.sourceforge.net/DTD/sodipodi-0.dtd"
   xmlns:inkscape="http://www.inkscape.org/namespaces/inkscape"
   id="svg7384"
   height="16"
   width="16"
   version="1.1"
   inkscape:version="0.92.2 (unknown)"
   sodipodi:docname="audacious-symbolic.svg">
  <defs
     id="defs12880">
    <linearGradient
       x2="0"
       y1="90"
       y2="5.9879999"
       gradientUnits="userSpaceOnUse"
       id="linearGradient3111"
       gradientTransform="matrix(1.0149,0,0,1.0238,-0.838,-1.144)">
      <stop
         stop-color="#656565"
         id="stop4278"
         style="stop-color:#cccccc;stop-opacity:1" />
      <stop
         stop-color="#c1c1c1"
         offset="1"
         id="stop4280"
         style="stop-color:#ebebeb;stop-opacity:1" />
    </linearGradient>
    <linearGradient
       x1="15"
       x2="108.86"
       y1="48"
       y2="47.820999"
       gradientUnits="userSpaceOnUse"
       id="linearGradient4252"
       gradientTransform="matrix(0,-1.0303,1.0303,0,-1.454,97.45)">
      <stop
         style="stop-color:#000000;stop-opacity:1"
         stop-color="#fff"
         id="stop4254" />
      <stop
         style="stop-color:#000000;stop-opacity:0"
         stop-color="#fff"
         stop-opacity="0"
         offset="1"
         id="stop4256" />
    </linearGradient>
    <linearGradient
       gradientTransform="matrix(0,-1.0557426,1.0465649,0,-2.36035,95.6205)"
       id="linearGradient3863-8"
       gradientUnits="userSpaceOnUse"
       x2="80"
       x1="16">
      <stop
         id="stop7"
         stop-color="#050505" />
      <stop
         id="stop9"
         offset="1"
         stop-color="#191919" />
    </linearGradient>
    <linearGradient
       gradientTransform="matrix(0,-1.0303,1.0303,0,-1.454,97.45)"
       id="linearGradient3814"
       gradientUnits="userSpaceOnUse"
       y2="47.820999"
       y1="48"
       x2="108.86"
       x1="15">
      <stop
         id="stop12"
         stop-color="#fff" />
      <stop
         id="stop14"
         offset="1"
         stop-opacity="0"
         stop-color="#fff" />
    </linearGradient>
    <linearGradient
       xlink:href="#linearGradient3111"
       gradientTransform="matrix(1.0185536,0,0,1.0081256,-1.0633078,-3.682981)"
       id="linearGradient3836"
       gradientUnits="userSpaceOnUse"
       y2="34.946999"
       y1="69.963997"
       x2="0">
      <stop
         id="stop17"
         stop-color="#737373" />
      <stop
         id="stop19"
         offset="1"
         stop-color="#cecece" />
    </linearGradient>
    <linearGradient
       gradientTransform="matrix(1.0149,0,0,1.0238,-58.193932,1.0881356)"
       id="linearGradient3878"
       gradientUnits="userSpaceOnUse"
       y2="12.88"
       y1="63.18"
       xlink:href="#linearGradient3814"
       x2="0" />
    <linearGradient
       id="linearGradient3613-3"
       gradientUnits="userSpaceOnUse"
       y2="138.66"
       y1="20.221001"
       xlink:href="#linearGradient3814"
       x2="0" />
    <clipPath
       id="clipPath3613-29">
      <rect
         id="rect24"
         width="84"
         height="84"
         y="6"
         rx="6"
         x="6" />
    </clipPath>
    <filter
       style="color-interpolation-filters:sRGB"
       width="1.3839999"
       id="filter3794-0"
       height="1.3839999"
       y="-0.192"
       x="-0.192">
      <feGaussianBlur
         id="feGaussianBlur27"
         stdDeviation="5.28" />
    </filter>
    <linearGradient
       gradientTransform="matrix(1.0149,0,0,1.0238,-0.838,-1.144)"
       id="linearGradient4282"
       gradientUnits="userSpaceOnUse"
       y2="5.9879999"
       y1="90"
       x2="0">
      <stop
         style="stop-color:#cccccc;stop-opacity:1"
         id="stop30"
         stop-color="#656565" />
      <stop
         style="stop-color:#ebebeb;stop-opacity:1"
         id="stop32"
         offset="1"
         stop-color="#c1c1c1" />
    </linearGradient>
    <linearGradient
       gradientTransform="matrix(1.0149,0,0,1.0238,-0.838,-1.144)"
       id="linearGradient3111-2"
       gradientUnits="userSpaceOnUse"
       y2="5.988"
       y1="90"
       x2="0">
      <stop
         style="stop-color:#cccccc;stop-opacity:1"
         id="stop4278-6"
         stop-color="#656565" />
      <stop
         style="stop-color:#ebebeb;stop-opacity:1"
         id="stop4280-0"
         offset="1"
         stop-color="#c1c1c1" />
    </linearGradient>
    <linearGradient
       x1="16"
       x2="80"
       gradientUnits="userSpaceOnUse"
       id="linearGradient3863-8-5"
       gradientTransform="matrix(0,-1.0557426,1.0465649,0,-2.36035,95.6205)">
      <stop
         stop-color="#050505"
         id="stop7-8" />
      <stop
         stop-color="#191919"
         offset="1"
         id="stop9-7" />
    </linearGradient>
    <linearGradient
       x2="0"
       y1="69.963997"
       y2="34.946999"
       gradientUnits="userSpaceOnUse"
       id="linearGradient3836-7"
       gradientTransform="matrix(1.0185536,0,0,1.0081256,-1.0633078,-3.682981)"
       xlink:href="#linearGradient3111-2">
      <stop
         stop-color="#737373"
         id="stop17-2" />
      <stop
         stop-color="#cecece"
         offset="1"
         id="stop19-8" />
    </linearGradient>
    <linearGradient
       x2="0"
       xlink:href="#linearGradient3814"
       y1="63.18"
       y2="12.88"
       gradientUnits="userSpaceOnUse"
       id="linearGradient3878-3"
       gradientTransform="matrix(1.0149,0,0,1.0238,-58.193932,1.0881356)" />
    <linearGradient
       x2="0"
       xlink:href="#linearGradient3814"
       y1="20.221"
       y2="138.66"
       gradientUnits="userSpaceOnUse"
       id="linearGradient3613-3-5" />
    <clipPath
       id="clipPath3613-29-4">
      <rect
         x="6"
         rx="6"
         y="6"
         height="84"
         width="84"
         id="rect24-0" />
    </clipPath>
    <filter
       x="-0.192"
       y="-0.192"
       height="1.384"
       color-interpolation-filters="sRGB"
       id="filter3794-0-1"
       width="1.384">
      <feGaussianBlur
         stdDeviation="5.28"
         id="feGaussianBlur27-1" />
    </filter>
    <linearGradient
       x2="0"
       y1="90"
       y2="5.988"
       gradientUnits="userSpaceOnUse"
       id="linearGradient4282-4"
       gradientTransform="matrix(1.0149,0,0,1.0238,-0.838,-1.144)">
      <stop
         stop-color="#656565"
         id="stop30-3"
         style="stop-color:#cccccc;stop-opacity:1" />
      <stop
         stop-color="#c1c1c1"
         offset="1"
         id="stop32-0"
         style="stop-color:#ebebeb;stop-opacity:1" />
    </linearGradient>
  </defs>
  <sodipodi:namedview
     pagecolor="#ffffff"
     bordercolor="#666666"
     borderopacity="1"
     objecttolerance="10"
     gridtolerance="10"
     guidetolerance="10"
     inkscape:pageopacity="0"
     inkscape:pageshadow="2"
     inkscape:window-width="1366"
     inkscape:window-height="706"
     id="namedview12878"
     showgrid="false"
     inkscape:zoom="20.85965"
     inkscape:cx="5.5749885"
     inkscape:cy="8.351002"
     inkscape:window-x="0"
     inkscape:window-y="0"
     inkscape:window-maximized="1"
     inkscape:current-layer="svg7384" />
  <metadata
     id="metadata90">
    <rdf:RDF>
      <cc:Work
         rdf:about="">
        <dc:format>image/svg+xml</dc:format>
        <dc:type
           rdf:resource="http://purl.org/dc/dcmitype/StillImage" />
        <dc:title>Gnome Symbolic Icon Theme</dc:title>
      </cc:Work>
    </rdf:RDF>
  </metadata>
  <title
     id="title9167">Gnome Symbolic Icon Theme</title>
  <g
     id="g861"
     transform="matrix(0.69424919,0,0,0.69424919,-0.33099011,-0.33099011)"
     style="fill:#bebebe;fill-opacity:1">
    <path
       style="opacity:1;fill:#bebebe;fill-opacity:1;stroke:none;stroke-width:1.09027779"
       d="M 12,0.7109375 A 11.289739,11.289739 0 0 0 0.7109375,12 11.289739,11.289739 0 0 0 12,23.289062 11.289739,11.289739 0 0 0 23.289062,12 11.289739,11.289739 0 0 0 12,0.7109375 Z m 0,1.796875 A 9.4920092,9.4920092 0 0 1 21.492188,12 9.4920092,9.4920092 0 0 1 12,21.492188 9.4920092,9.4920092 0 0 1 2.5078125,12 9.4920092,9.4920092 0 0 1 12,2.5078125 Z"
       id="path854"
       inkscape:connector-curvature="0" />
    <path
       style="color:#000000;fill:#bebebe;fill-opacity:1"
       d="m 12.002356,3.9298455 a 8,8.0701549 0 1 0 0,16.1403095 8,8.0701549 0 0 0 0,-16.1403095 z m 0.374557,4.4038231 c 1.810688,0.06487 2.882499,1.223845 3.000687,2.9124634 0.133154,1.90371 -0.463536,2.396262 -0.209732,2.778803 0.529963,0.79881 -0.216548,1.010706 -0.714776,1.401025 -0.309904,0.242766 -0.90776,0.128892 -1.2045,-0.216599 -0.901688,-0.493255 -0.55997,0.4539 -2.422209,0.458028 -0.9680669,-0.03751 -1.8503069,-0.698112 -2.1010089,-1.589096 -0.384477,-1.366337 0.178388,-2.37207 1.7486399,-2.84801 0.454177,-0.137656 1.354491,-0.05875 1.750752,-0.332823 0.374254,-0.258843 0.234507,-0.632464 -0.225052,-0.680966 -0.659082,-0.06956 -1.686743,0.21505 -2.2948899,0.100904 -0.488172,-0.09161 -0.637119,-0.9757994 -0.318559,-1.3550644 0.521284,-0.6206841 1.8632799,-0.594006 2.6187319,-0.627079 v 5.4e-4 c 0.127219,-0.0055 0.251204,-0.0065 0.371916,-0.0021 z m -0.245127,4.0810394 c -0.419411,0 -0.761793,0.297019 -0.761793,0.665646 0,0.368626 0.342382,0.665645 0.761793,0.665645 0.419414,0 0.753871,-0.297019 0.753871,-0.665645 0,-0.368627 -0.334457,-0.665646 -0.753871,-0.665646 z"
       id="path54"
       inkscape:connector-curvature="0" />
  </g>
</svg>
